; generated by Slic3r 1.2.9 on 2018-09-12 at 21:28:59

; external perimeters extrusion width = 0.45mm
; perimeters extrusion width = 0.59mm
; infill extrusion width = 0.59mm
; solid infill extrusion width = 0.59mm
; top infill extrusion width = 0.59mm

M107
M104 S200 ; set temperature
G28 ; home all axes
G1 Z5 F5000 ; lift nozzle

M109 S200 ; wait for temperature to be reached
G21 ; set units to millimeters
G90 ; use absolute coordinates
M82 ; use absolute distances for extrusion
G92 E0
G1 Z0.450 F7800.000
G1 X75.521 Y75.679 F7800.000
G1 X76.903 Y74.586 E0.09015 F600.000
G1 X77.199 Y74.403 E0.10792
G1 X78.796 Y73.657 E0.19807
G1 X79.126 Y73.548 E0.21584
G1 X80.851 Y73.189 E0.30599
G1 X81.198 Y73.158 E0.32379
G1 X82.080 Y73.131 E0.36892
G1 X87.560 Y73.281 E0.64934
G1 X88.462 Y73.328 E0.69554 F600.000
G1 X89.667 Y73.461 E0.75753
G1 X90.745 Y73.660 E0.81362
G1 X92.019 Y74.018 E0.88129
G1 X92.948 Y74.349 E0.93172
G1 X94.247 Y74.957 E1.00507
G1 X95.015 Y75.376 E1.04983
G1 X95.389 Y75.622 E1.07276
G1 X96.537 Y76.431 E1.14457
G1 X121.098 Y95.082 E2.72194
G1 X122.790 Y96.866 E2.84770
G1 X123.990 Y99.828 E3.01120
G1 X127.162 Y117.953 E3.95235
G1 X127.189 Y120.412 E4.07811
G1 X126.430 Y122.751 E4.20387
G1 X124.965 Y124.725 E4.32963
G1 X122.946 Y126.129 E4.45539
G1 X119.669 Y126.872 E4.62727
G1 X112.850 Y126.872 E4.97603
G1 X110.424 Y126.474 E5.10179
G1 X107.854 Y125.001 E5.25330
G1 X77.895 Y98.906 E7.28543
G1 X77.458 Y98.494 E7.31613
G1 X76.352 Y97.342 E7.39778
G1 X75.845 Y96.693 E7.43991
G1 X74.972 Y95.419 E7.51893
G1 X74.552 Y94.651 E7.56369
G1 X74.082 Y93.660 E7.61979
G1 X73.944 Y93.352 E7.63704
G1 X73.614 Y92.423 E7.68747
G1 X73.256 Y91.150 E7.75514
G1 X73.057 Y90.071 E7.81124
G1 X72.924 Y88.866 E7.87322
G1 X72.886 Y88.291 E7.90271
G1 X72.727 Y82.484 E8.19985
G1 X72.754 Y81.602 E8.24500
G1 X72.785 Y81.255 E8.26280
G1 X73.144 Y79.530 E8.35293
G1 X73.247 Y79.219 E8.36970
G1 X73.999 Y77.603 E8.46084
G1 X74.182 Y77.307 E8.47862
G1 X75.275 Y75.925 E8.56876
G1 X75.473 Y75.727 E8.58309
G1 X76.089 Y76.248 F7800.000
G1 X77.325 Y75.270 E8.66371 F600.000
G1 X77.621 Y75.087 E8.68149
G1 X79.049 Y74.420 E8.76211
G1 X79.379 Y74.310 E8.77989
G1 X80.922 Y73.989 E8.86052
G1 X81.269 Y73.959 E8.87831
G1 X82.058 Y73.934 E8.91867
G1 X87.538 Y74.084 E9.19910
G1 X88.380 Y74.127 E9.24218 F600.000
G1 X89.578 Y74.259 E9.30387
G1 X90.543 Y74.437 E9.35404
G1 X91.799 Y74.791 E9.42081
G1 X92.630 Y75.087 E9.46591
G1 X93.902 Y75.682 E9.53776
G1 X94.589 Y76.058 E9.57779
G1 X94.930 Y76.281 E9.59862
G1 X96.052 Y77.070 E9.66878
G1 X120.612 Y95.722 E11.24614
G1 X122.195 Y97.423 E11.36503
G1 X123.199 Y99.967 E11.50490
G1 X126.370 Y118.092 E12.44605
G1 X126.374 Y120.416 E12.56494
G1 X125.595 Y122.606 E12.68382
G1 X124.124 Y124.406 E12.80271
G1 X122.134 Y125.606 E12.92160
G1 X119.669 Y126.068 E13.04986
G1 X112.850 Y126.068 E13.39863
G1 X110.560 Y125.671 E13.51751
G1 X108.382 Y124.395 E13.64664
G1 X78.422 Y98.300 E15.67877
G1 X78.032 Y97.932 E15.70622
G1 X76.962 Y96.819 E15.78517
G1 X76.504 Y96.234 E15.82318
G1 X75.654 Y94.993 E15.90010
G1 X75.278 Y94.307 E15.94013
G1 X74.808 Y93.316 E15.99623
G1 X74.682 Y93.034 E16.01198
G1 X74.387 Y92.204 E16.05708
G1 X74.033 Y90.947 E16.12385
G1 X73.855 Y89.982 E16.17403
G1 X73.723 Y88.784 E16.23571
G1 X73.689 Y88.269 E16.26209
G1 X73.530 Y82.462 E16.55923
G1 X73.554 Y81.673 E16.59961
G1 X73.585 Y81.326 E16.61741
G1 X73.906 Y79.783 E16.69801
G1 X74.009 Y79.472 E16.71479
G1 X74.683 Y78.025 E16.79641
G1 X74.865 Y77.730 E16.81419
G1 X75.843 Y76.493 E16.89481
G1 X76.041 Y76.295 E16.90913
G92 E0
G1 X113.828 Y106.416 F7800.000
G1 X113.465 Y106.607 E0.02100 F600.000
G1 X113.066 Y106.706 E0.04200
G1 X112.655 Y106.706 E0.06301
G1 X112.257 Y106.607 E0.08401
G1 X111.893 Y106.416 E0.10501
G1 X111.586 Y106.144 E0.12601
G1 X111.352 Y105.806 E0.14701
G1 X111.207 Y105.422 E0.16802
G1 X111.160 Y105.034 E0.18800
G1 X111.206 Y104.610 E0.20985
G1 X111.352 Y104.223 E0.23100
G1 X111.586 Y103.885 E0.25200
G1 X111.893 Y103.613 E0.27300
G1 X112.257 Y103.422 E0.29401
G1 X112.655 Y103.324 E0.31501
G1 X113.066 Y103.324 E0.33601 F600.000
G1 X113.445 Y103.417 E0.35600
G1 X113.826 Y103.611 E0.37784
G1 X114.135 Y103.885 E0.39899
G1 X114.369 Y104.223 E0.41999
G1 X114.514 Y104.607 E0.44100
G1 X114.561 Y104.995 E0.46098
G1 X114.515 Y105.420 E0.48283
G1 X114.369 Y105.806 E0.50398
G1 X114.135 Y106.144 E0.52498
G1 X113.879 Y106.372 E0.54253
G1 X113.845 Y106.827 F7800.000
G92 E0
G1 X110.669 Y105.555 F7800.000
G1 X110.295 Y104.977 F7800.000
G1 X110.339 Y104.349 F7800.000
G1 X110.438 Y103.805 F7800.000
G1 X110.578 Y103.931 F7800.000
G1 X110.239 Y103.826 E0.01814 F600.000
G1 X110.239 Y102.393 E0.09142
G1 X111.699 Y102.393 E0.16611
G1 X111.790 Y102.760 E0.18543
G1 X111.433 Y102.947 E0.20602
G1 X110.980 Y103.349 E0.23700
G1 X110.616 Y103.876 E0.26977
G1 X113.704 Y112.673 F7800.000
G1 X114.307 Y112.520 E0.30163 F600.000
G1 X114.917 Y112.521 E0.33283
G1 X115.482 Y112.660 E0.36257
G1 X116.035 Y112.944 E0.39439
G1 X116.493 Y113.350 E0.42569
G1 X116.836 Y113.849 E0.45662
G1 X117.050 Y114.414 E0.48756
G1 X117.121 Y114.995 E0.51747
G1 X117.048 Y115.623 E0.54981
G1 X116.838 Y116.176 E0.58006
G1 X116.488 Y116.685 E0.61169
G1 X116.032 Y117.086 E0.64271
G1 X115.517 Y117.357 E0.67251
G1 X114.911 Y117.510 E0.70445
G1 X114.301 Y117.508 E0.73564
G1 X113.736 Y117.368 E0.76544
G1 X113.181 Y117.082 E0.79738
G1 X112.724 Y116.674 E0.82868
G1 X112.382 Y116.175 E0.85966
G1 X112.170 Y115.610 E0.89053
G1 X112.100 Y115.031 E0.92032
G1 X112.171 Y114.411 E0.95227
G1 X112.390 Y113.840 E0.98357
G1 X112.735 Y113.342 E1.01454
G1 X113.188 Y112.944 E1.04539
G1 X113.644 Y112.705 E1.07170
G1 X113.993 Y113.429 F7800.000
G1 X114.407 Y113.323 E1.09354 F600.000
G1 X114.819 Y113.324 E1.11460
G1 X115.199 Y113.418 E1.13461
G1 X115.578 Y113.613 E1.15643
G1 X115.887 Y113.887 E1.17753
G1 X116.119 Y114.224 E1.19850
G1 X116.264 Y114.608 E1.21947
G1 X116.312 Y114.997 E1.23953
G1 X116.261 Y115.431 E1.26189
G1 X116.122 Y115.800 E1.28208
G1 X115.882 Y116.148 E1.30365
G1 X115.574 Y116.419 E1.32467
G1 X115.227 Y116.601 E1.34469
G1 X114.812 Y116.706 E1.36658
G1 X114.400 Y116.705 E1.38766
G1 X114.020 Y116.611 E1.40768
G1 X113.640 Y116.415 E1.42957
G1 X113.332 Y116.140 E1.45069
G1 X113.100 Y115.801 E1.47169
G1 X112.956 Y115.417 E1.49265
G1 X112.909 Y115.029 E1.51267
G1 X112.957 Y114.604 E1.53456
G1 X113.105 Y114.218 E1.55568
G1 X113.340 Y113.881 E1.57668
G1 X113.647 Y113.611 E1.59762
G1 X113.933 Y113.460 E1.61417
G1 X114.077 Y113.010 F7800.000
G1 X111.042 Y108.345 F7800.000
G1 X111.042 Y107.785 E1.64282 F600.000
G1 X111.683 Y108.121 E1.67980
G1 X112.460 Y108.312 E1.72077
G1 X113.261 Y108.312 E1.76173
G1 X114.039 Y108.121 E1.80269
G1 X114.748 Y107.749 E1.84365
G1 X115.456 Y107.121 E1.89203
G1 X116.344 Y112.200 E2.15573
G1 X115.765 Y111.903 E2.18904
G1 X115.016 Y111.718 E2.22852
G1 X114.207 Y111.716 E2.26985
G1 X113.414 Y111.918 E2.31174
G1 X112.730 Y112.277 E2.35127
G1 X112.131 Y112.804 E2.39202
G1 X111.674 Y113.461 E2.43297
G1 X111.384 Y114.218 E2.47445
G1 X111.315 Y114.821 E2.50547
G1 X92.502 Y96.007 E3.86632
G1 X91.224 Y94.900 E3.95281
G1 X90.110 Y94.185 E4.02051
G1 X90.473 Y93.659 E4.05321
G1 X90.766 Y92.886 E4.09547
G1 X90.856 Y92.061 E4.13792
G1 X90.740 Y91.106 E4.18715
G1 X91.281 Y91.239 E4.21566
G1 X92.094 Y91.239 E4.25724
G1 X92.883 Y91.044 E4.29882
G1 X93.809 Y90.558 E4.35230
G1 X94.496 Y91.628 E4.41731
G1 X95.603 Y92.906 E4.50380
G1 X110.995 Y108.297 E5.61712
G1 X110.239 Y106.405 F7800.000
G1 X110.239 Y106.204 E5.62743 F600.000
G1 X110.578 Y106.098 E5.64557
G1 X110.980 Y106.681 E5.68179
G1 X111.433 Y107.083 E5.71277
G1 X111.970 Y107.364 E5.74375
G1 X112.558 Y107.509 E5.77474
G1 X113.163 Y107.509 E5.80572
G1 X113.752 Y107.364 E5.83670
G1 X114.288 Y107.083 E5.86768
G1 X114.741 Y106.681 E5.89866
G1 X115.085 Y106.182 E5.92964
G1 X115.303 Y105.608 E5.96104
G1 X115.370 Y104.990 E5.99286
G1 X115.300 Y104.413 E6.02256
G1 X115.085 Y103.847 E6.05355
G1 X114.741 Y103.349 E6.08453
G1 X114.282 Y102.941 E6.11592
G1 X113.930 Y102.763 E6.13608
G1 X114.019 Y102.393 E6.15553
G1 X115.444 Y102.393 E6.22840
G1 X118.177 Y118.011 E7.03938
G1 X113.369 Y118.011 E7.28529
G1 X91.954 Y96.596 E8.83436
G1 X90.741 Y95.545 E8.91644
G1 X89.353 Y94.653 E9.00082
G1 X88.745 Y94.376 E9.03499
G1 X89.406 Y93.791 E9.08011
G1 X89.756 Y93.282 E9.11171
G1 X89.978 Y92.697 E9.14373
G1 X90.047 Y92.066 E9.17620
G1 X89.976 Y91.478 E9.20648
G1 X89.748 Y90.878 E9.23932
G1 X90.298 Y90.394 E9.27679
G1 X90.479 Y90.130 E9.29315
G1 X90.779 Y90.288 E9.31046
G1 X91.379 Y90.436 E9.34206
G1 X91.996 Y90.436 E9.37366
G1 X92.596 Y90.288 E9.40526
G1 X93.143 Y90.001 E9.43686
G1 X93.606 Y89.591 E9.46845
G1 X93.947 Y89.096 E9.49923
G1 X94.249 Y89.757 E9.53641
G1 X95.141 Y91.145 E9.62079
G1 X96.192 Y92.358 E9.70287
G1 X110.191 Y106.358 E10.71552
G92 E0
G1 X110.252 Y106.484 F7800.000
G1 X92.640 Y85.478 F7800.000
G1 X92.701 Y85.521 F7800.000
G1 X91.996 Y85.348 E0.03714 F600.000
G1 X91.370 Y85.348 E0.06915
G1 X90.756 Y85.507 E0.10163
G1 X90.479 Y85.653 E0.11763
G1 X90.299 Y85.391 E0.13390
G1 X89.749 Y84.904 E0.17148
G1 X89.978 Y84.297 E0.20465
G1 X90.047 Y83.666 E0.23713
G1 X89.932 Y82.716 E0.28606
G1 X90.357 Y82.918 E0.31014
G1 X91.137 Y83.459 E0.35871
G1 X91.815 Y84.119 E0.40713
G1 X92.404 Y84.926 E0.45817
G1 X92.671 Y85.461 E0.48879
G1 X90.231 Y86.857 F7800.000
G1 X90.691 Y86.449 E0.52028 F600.000
G1 X91.048 Y86.262 E0.54085
G1 X91.473 Y86.151 E0.56334
G1 X91.899 Y86.151 E0.58511
G1 X92.289 Y86.247 E0.60568
G1 X92.681 Y86.447 E0.62817
G1 X93.000 Y86.729 E0.64994
G1 X93.240 Y87.077 E0.67156
G1 X93.390 Y87.472 E0.69318
G1 X93.441 Y87.892 E0.71480
G1 X93.390 Y88.311 E0.73641
G1 X93.240 Y88.706 E0.75803
G1 X93.000 Y89.054 E0.77965
G1 X92.683 Y89.335 E0.80127
G1 X92.309 Y89.531 E0.82289
G1 X91.899 Y89.632 E0.84451
G1 X91.476 Y89.632 E0.86613
G1 X91.066 Y89.531 E0.88774
G1 X90.691 Y89.335 E0.90936
G1 X90.231 Y88.927 E0.94081
G1 X90.108 Y89.252 E0.95860
G1 X89.692 Y89.856 E0.99612
G1 X89.159 Y90.326 E1.03243
G1 X88.506 Y90.669 E1.07018
G1 X88.800 Y90.929 E1.09025
G1 X89.040 Y91.277 E1.11187
G1 X89.190 Y91.672 E1.13349
G1 X89.238 Y92.071 E1.15406
G1 X89.191 Y92.508 E1.17655
G1 X89.040 Y92.906 E1.19832
G1 X88.800 Y93.254 E1.21994
G1 X88.483 Y93.535 E1.24156
G1 X88.127 Y93.721 E1.26212
G1 X87.702 Y93.832 E1.28462
G1 X87.276 Y93.832 E1.30639
G1 X86.886 Y93.736 E1.32696
G1 X86.494 Y93.536 E1.34945
G1 X86.175 Y93.254 E1.37122
G1 X85.935 Y92.906 E1.39284
G1 X85.785 Y92.511 E1.41446
G1 X85.737 Y92.112 E1.43502
G1 X85.784 Y91.675 E1.45752
G1 X85.935 Y91.277 E1.47929
G1 X86.175 Y90.929 E1.50091
G1 X86.469 Y90.668 E1.52100
G1 X85.789 Y90.305 E1.56046
G1 X85.283 Y89.857 E1.59501
G1 X84.877 Y89.273 E1.63139
G1 X84.744 Y88.926 E1.65038
G1 X84.283 Y89.335 E1.68188
G1 X83.927 Y89.521 E1.70245
G1 X83.502 Y89.632 E1.72495
G1 X83.076 Y89.632 E1.74672
G1 X82.666 Y89.531 E1.76834
G1 X82.291 Y89.335 E1.78995
G1 X81.975 Y89.054 E1.81157
G1 X81.735 Y88.706 E1.83319
G1 X81.585 Y88.311 E1.85481
G1 X81.534 Y87.892 E1.87643
G1 X81.583 Y87.492 E1.89700
G1 X81.733 Y87.079 E1.91949
G1 X81.975 Y86.729 E1.94126
G1 X82.291 Y86.449 E1.96288
G1 X82.666 Y86.252 E1.98450
G1 X83.076 Y86.151 E2.00611
G1 X83.499 Y86.151 E2.02773
G1 X83.909 Y86.252 E2.04935
G1 X84.283 Y86.449 E2.07097
G1 X84.744 Y86.856 E2.10242
G1 X84.868 Y86.528 E2.12042
G1 X85.270 Y85.941 E2.15679
G1 X85.802 Y85.467 E2.19320
G1 X86.468 Y85.114 E2.23179
G1 X86.175 Y84.854 E2.25184
G1 X85.935 Y84.506 E2.27346
G1 X85.785 Y84.111 E2.29507
G1 X85.737 Y83.712 E2.31564
G1 X85.784 Y83.275 E2.33814
G1 X85.935 Y82.877 E2.35991
G1 X86.175 Y82.529 E2.38152
G1 X86.491 Y82.249 E2.40314
G1 X86.866 Y82.052 E2.42476
G1 X87.276 Y81.951 E2.44638
G1 X87.699 Y81.951 E2.46800
G1 X88.089 Y82.047 E2.48857
G1 X88.481 Y82.247 E2.51106
G1 X88.800 Y82.529 E2.53283
G1 X89.040 Y82.877 E2.55445
G1 X89.190 Y83.272 E2.57607
G1 X89.238 Y83.671 E2.59663
G1 X89.191 Y84.108 E2.61913
G1 X89.040 Y84.506 E2.64090
G1 X88.800 Y84.854 E2.66252
G1 X88.505 Y85.115 E2.68267
G1 X89.186 Y85.478 E2.72213
G1 X89.692 Y85.927 E2.75675
G1 X90.108 Y86.532 E2.79427
G1 X90.207 Y86.794 E2.80860
G1 X90.424 Y86.451 F7800.000
G92 E0
G1 X85.580 Y84.961 F7800.000
G1 X85.364 Y84.916 F7800.000
G1 X85.135 Y84.881 F7800.000
G1 X84.257 Y84.665 F7800.000
G1 X84.235 Y84.678 F7800.000
G1 X83.694 Y84.544 E0.02852 F600.000
G1 X82.881 Y84.544 E0.07010
G1 X82.454 Y84.650 E0.09260
G1 X82.403 Y82.807 E0.18686
G1 X84.213 Y82.857 E0.27946
G1 X84.119 Y83.722 E0.32398
G1 X84.227 Y84.611 E0.36975
G1 X81.683 Y85.861 F7800.000
G1 X81.586 Y82.314 E0.55121 F600.000
G1 X81.613 Y82.017 E0.56649
G1 X81.910 Y81.990 E0.58177
G1 X85.503 Y82.089 E0.76560
G1 X85.218 Y82.501 E0.79122
G1 X84.996 Y83.086 E0.82323
G1 X84.928 Y83.717 E0.85570
G1 X84.999 Y84.305 E0.88599
G1 X85.226 Y84.904 E0.91874
G1 X84.663 Y85.406 E0.95736
G1 X84.494 Y85.652 E0.97260
G1 X84.196 Y85.496 E0.98983
G1 X83.596 Y85.348 E1.02143
G1 X82.979 Y85.348 E1.05303
G1 X82.379 Y85.496 E1.08462
G1 X81.743 Y85.829 E1.12135
G92 E0
G1 X81.757 Y85.745 F7800.000
G1 X82.335 Y90.304 F7800.000
G1 X82.277 Y90.263 F7800.000
G1 X82.979 Y90.436 E0.03694 F600.000
G1 X83.604 Y90.436 E0.06895
G1 X84.219 Y90.276 E0.10142
G1 X84.495 Y90.131 E0.11739
G1 X84.679 Y90.394 E0.13381
G1 X85.226 Y90.880 E0.17124
G1 X84.996 Y91.486 E0.20441
G1 X84.928 Y92.117 E0.23688
G1 X85.043 Y93.067 E0.28584
G1 X84.518 Y92.806 E0.31583
G1 X83.754 Y92.253 E0.36408
G1 X83.054 Y91.539 E0.41523
G1 X82.514 Y90.761 E0.46368
G1 X82.306 Y90.324 E0.48843
G92 E0
G1 X82.335 Y90.304 F7800.000
G1 X96.377 Y92.185 F7800.000
G1 X109.435 Y104.466 F7800.000
G1 X109.435 Y101.590 E0.14710 F600.000
G1 X116.119 Y101.590 E0.48894
G1 X119.133 Y118.815 E1.38336
G1 X113.037 Y118.815 E1.69519
G1 X91.406 Y97.184 E3.25981
G1 X90.258 Y96.190 E3.33749
G1 X88.967 Y95.360 E3.41598
G1 X87.572 Y94.724 E3.49442
G1 X85.066 Y93.976 E3.62821
G1 X84.101 Y93.496 E3.68330
G1 X83.228 Y92.864 E3.73842
G1 X82.432 Y92.053 E3.79653
G1 X81.816 Y91.165 E3.85184
G1 X81.377 Y90.240 E3.90419
G1 X81.060 Y89.145 E3.96252
G1 X80.939 Y88.052 E4.01874
G1 X80.782 Y82.290 E4.31359
G1 X80.805 Y82.022 E4.32734
G1 X80.882 Y81.792 E4.33975
G1 X81.009 Y81.585 E4.35216
G1 X81.181 Y81.414 E4.36457
G1 X81.387 Y81.286 E4.37697
G1 X81.618 Y81.210 E4.38938
G1 X81.885 Y81.186 E4.40313
G1 X87.648 Y81.344 E4.69799
G1 X88.740 Y81.464 E4.75420
G1 X89.836 Y81.782 E4.81253
G1 X90.761 Y82.220 E4.86489
G1 X91.650 Y82.837 E4.92024
G1 X92.424 Y83.591 E4.97553
G1 X93.092 Y84.506 E5.03349
G1 X93.548 Y85.419 E5.08569
G1 X94.320 Y87.977 E5.22231
G1 X94.956 Y89.371 E5.30072
G1 X95.786 Y90.662 E5.37921
G1 X96.780 Y91.810 E5.45688
G1 X109.388 Y104.418 E6.36885
G1 X109.870 Y104.582 F7800.000
G1 X117.384 Y115.926 F7800.000
G1 X117.331 Y116.456 E6.39612 F600.000
G1 X117.176 Y117.170 E6.43348
G1 X116.333 Y117.501 E6.47977
G1 X115.982 Y117.589 E6.49829
G1 X113.516 Y117.657 F7800.000
G1 X110.928 Y113.438 F7800.000
G1 X108.845 Y109.014 F7800.000
G1 X92.993 Y93.397 F7800.000
G1 X92.582 Y92.990 F7800.000
G1 X91.950 Y92.353 F7800.000
G1 X91.487 Y91.886 F7800.000
G1 X91.527 Y91.922 F7800.000
G1 X92.177 Y91.922 E6.53194 F600.000
G1 X93.127 Y91.688 E6.58259
G1 X93.573 Y91.454 E6.60863
G1 X93.948 Y92.038 E6.64457
G1 X95.103 Y93.371 E6.73589
G1 X111.725 Y109.994 E7.95256
G1 X111.725 Y108.835 E8.01254
G1 X112.377 Y108.995 E8.04729
G1 X113.344 Y108.995 E8.09732
G1 X114.282 Y108.764 E8.14736
G1 X114.985 Y108.395 E8.18844
G1 X115.463 Y111.125 E8.33187
G1 X115.099 Y111.035 E8.35126
G1 X114.123 Y111.033 E8.40181
G1 X113.168 Y111.276 E8.45282
G1 X112.340 Y111.711 E8.50121
G1 X111.618 Y112.346 E8.55097
G1 X111.066 Y113.139 E8.60098
G1 X110.937 Y113.477 E8.61971
G1 X92.967 Y95.507 E9.93502
G1 X91.634 Y94.352 E10.02633
G1 X91.073 Y93.992 E10.06083
G1 X91.436 Y93.047 E10.11323
G1 X91.543 Y92.056 E10.16477
G1 X91.535 Y91.989 E10.16830
G1 X92.288 Y92.732 F7800.000
G1 X93.265 Y92.491 E10.22039 F600.000
G1 X94.508 Y93.926 E10.31864
G1 X111.739 Y111.157 E11.57987
G1 X110.690 Y112.080 E11.65219
G1 X93.522 Y94.912 E12.90883
G1 X92.074 Y93.657 E13.00799
G1 X92.233 Y93.238 E13.03122
G1 X92.280 Y92.799 E13.05406
G92 E0
